src/lib/packages/icons/src/assets/filled/file-music.svg

<svg width="24" height="24" viewBox="0 0 24 24" fill="none" xmlns="http://www.w3.org/2000/svg">
<path d="M17 9.75C14.58 9.75 13.25 8.42 13.25 6V3H8C6 3 5 4 5 6V18C5 20 6 21 8 21H17C19 21 20 20 20 18V9.75H17ZM16.333 12.296C16.333 12.806 16.006 13.214 15.479 13.36L13.062 14.035C12.899 14.082 12.7781 14.279 12.7781 14.5V16.944C12.7781 18.078 11.8559 19 10.7229 19C9.5889 19 8.66699 18.078 8.66699 16.944C8.66699 15.811 9.5889 14.889 10.7229 14.889C11.1099 14.889 11.4681 15.003 11.7781 15.19V11.98C11.7781 11.365 12.1931 10.815 12.7881 10.642L14.8501 10.063C15.3801 9.913 15.724 10.055 15.917 10.201C16.106 10.345 16.333 10.632 16.333 11.184V12.296ZM14.75 6V3.75L19.25 8.25H17C15.42 8.25 14.75 7.58 14.75 6Z" fill="currentColor"/>
</svg>

<svg xmlns="http://www.w3.org/2000/svg" width="24" height="24" fill="none"><path fill="currentColor" d="M17 9.75c-2.42 0-3.75-1.33-3.75-3.75V3H8C6 3 5 4 5 6v12c0 2 1 3 3 3h9c2 0 3-1 3-3V9.75h-3Zm-.667 2.546c0 .51-.327.918-.854 1.064l-2.417.675c-.163.047-.284.244-.284.465v2.444A2.058 2.058 0 0 1 10.723 19a2.058 2.058 0 0 1-2.056-2.056c0-1.133.922-2.055 2.056-2.055.387 0 .745.114 1.055.301v-3.21c0-.615.415-1.165 1.01-1.338l2.062-.579c.53-.15.874-.008 1.067.138.189.144.416.431.416.983v1.112ZM14.75 6V3.75l4.5 4.5H17c-1.58 0-2.25-.67-2.25-2.25Z"/></svg>
